svgs/sharp-light/mobile-retro.svg

<svg xmlns="http://www.w3.org/2000/svg" viewBox="0 0 320 512"><!--! Font Awesome Pro 6.6.0 by @fontawesome - https://fontawesome.com License - https://fontawesome.com/license (Commercial License) Copyright 2024 Fonticons, Inc. --><path d="M288 32l0 448L32 480 32 32l256 0zM32 0L0 0 0 32 0 480l0 32 32 0 256 0 32 0 0-32 0-448 0-32L288 0 32 0zM224 160l0 64L96 224l0-64 128 0zM96 128l-32 0 0 32 0 64 0 32 32 0 128 0 32 0 0-32 0-64 0-32-32 0L96 128zm8 176l-48 0 0 48 48 0 0-48zM56 384l0 48 48 0 0-48-48 0zm128-80l-48 0 0 48 48 0 0-48zm-48 80l0 48 48 0 0-48-48 0zm128-80l-48 0 0 48 48 0 0-48zm-48 80l0 48 48 0 0-48-48 0zM128 64l-16 0 0 32 16 0 64 0 16 0 0-32-16 0-64 0z"/></svg>

<svg xmlns="http://www.w3.org/2000/svg" viewBox="0 0 320 512"><!--! Font Awesome Pro 6.4.0 by @fontawesome - https://fontawesome.com License - https://fontawesome.com/license (Commercial License) Copyright 2023 Fonticons, Inc. --><path d="M288 32V480H32V32H288zM32 0H0V32 480v32H32 288h32V480 32 0H288 32zM224 160v64H96V160H224zM96 128H64v32 64 32H96 224h32V224 160 128H224 96zm8 176H56v48h48V304zM56 384v48h48V384H56zm128-80H136v48h48V304zm-48 80v48h48V384H136zm128-80H216v48h48V304zm-48 80v48h48V384H216zM128 64H112V96h16 64 16V64H192 128z"/></svg>
